dist/img/content/how-it-works/04.svg

<svg width="34" height="45" viewBox="0 0 34 45" fill="none" xmlns="http://www.w3.org/2000/svg">
<path d="M28.4531 28.125H22.8281V2.10938H15.7969L1.73438 28.125L5.95312 33.75H17.2031V40.0781H22.8281V33.75H28.4531V28.125ZM8.76562 28.125L17.2031 10.5469V28.125H8.76562Z" fill="#FFB07B"/>
<path d="M17.2031 40.0781L20.0156 42.8906H25.6406L22.8281 40.0781H17.2031Z" fill="#9E734C"/>
<path d="M22.8281 33.75V40.0781L25.6406 42.8906V36.5625L22.8281 33.75Z" fill="#C09267"/>
<path d="M25.6406 36.5625H31.2656L28.4531 33.75H22.8281L25.6406 36.5625Z" fill="#9E734C"/>
<path d="M28.4531 28.125L31.2656 30.9375V36.5625L28.4531 33.75V28.125Z" fill="#C09267"/>
<path d="M5.95312 33.75L8.76562 36.5625H17.2031V33.75H5.95312Z" fill="#9E734C"/>
<path d="M8.76562 28.125L17.2031 10.5469V17.5781L12.2812 28.125H8.76562ZM22.8281 2.10938L25.6406 4.92188V28.125H22.8281V2.10938Z" fill="#C09267"/>
<path d="M17.9062 10.5468C17.9058 10.3878 17.8515 10.2337 17.7521 10.1096C17.6528 9.98542 17.5144 9.89861 17.3594 9.86328C17.2044 9.82796 17.0419 9.8462 16.8986 9.91505C16.7553 9.98389 16.6396 10.0993 16.5703 10.2424L8.13281 27.8205C8.08136 27.9276 8.05789 28.046 8.0646 28.1646C8.07131 28.2833 8.10797 28.3983 8.17117 28.4989C8.23437 28.5995 8.32204 28.6825 8.42599 28.74C8.52995 28.7976 8.64679 28.8279 8.76562 28.8281H17.2031C17.3896 28.8281 17.5684 28.754 17.7003 28.6221C17.8322 28.4903 17.9062 28.3114 17.9062 28.1249V10.5468ZM16.5 27.4218H13.3852L16.5 20.7477V27.4218ZM16.5 17.422L11.8334 27.4218H9.88289L16.5 13.6363V17.422Z" fill="#222831"/>
<path d="M28.9512 27.6286C28.886 27.5629 28.8084 27.5108 28.723 27.4753C28.6375 27.4398 28.5459 27.4217 28.4534 27.4219H26.344V4.92188C26.3439 4.73541 26.2698 4.5566 26.138 4.42477L23.3255 1.61227C23.2603 1.54678 23.1829 1.49486 23.0975 1.4595C23.0122 1.42414 22.9207 1.40604 22.8284 1.40625H15.7971C15.6703 1.40618 15.5459 1.44039 15.437 1.50524C15.3281 1.5701 15.2387 1.6632 15.1784 1.77469L1.11585 27.7903C1.05191 27.9086 1.02322 28.0427 1.03319 28.1768C1.04316 28.3109 1.09137 28.4393 1.1721 28.5469L5.39085 34.1719C5.41124 34.1993 5.45624 34.2471 5.45624 34.2471L8.26874 37.0596C8.40057 37.1915 8.57939 37.2656 8.76585 37.2656H16.5002V40.0781C16.5 40.1707 16.5182 40.2623 16.5537 40.3478C16.5892 40.4332 16.6412 40.5108 16.7069 40.5759L19.5194 43.3884C19.6512 43.5199 19.8297 43.5937 20.0159 43.5938H25.6409C25.8273 43.5938 26.0062 43.5197 26.138 43.3878C26.2699 43.256 26.344 43.0771 26.344 42.8906V37.2656H31.2659C31.4049 37.2657 31.5408 37.2245 31.6565 37.1472C31.7721 37.07 31.8623 36.9603 31.9155 36.8318C31.9428 36.7442 31.9608 36.6539 31.969 36.5625V30.9375C31.9689 30.751 31.8948 30.5722 31.763 30.4404L28.9512 27.6286ZM23.5315 3.80672L24.9377 5.21297V27.4219H23.5315V3.80672ZM16.5002 35.8594H9.05695L7.6507 34.4531H16.5002V35.8594ZM17.2034 33.0469H6.30491L2.56781 28.0631L16.219 2.8125H22.1252V28.125C22.1252 28.3115 22.1993 28.4903 22.3312 28.6222C22.463 28.754 22.6419 28.8281 22.8284 28.8281H27.7502V33.0469H22.8284C22.6419 33.0469 22.463 33.121 22.3312 33.2528C22.1993 33.3847 22.1252 33.5635 22.1252 33.75V39.375H17.9065V33.75C17.9065 33.5635 17.8324 33.3847 17.7005 33.2528C17.5687 33.121 17.3898 33.0469 17.2034 33.0469ZM20.3069 42.1875L18.9007 40.7813H22.5373L23.9435 42.1875H20.3069ZM24.9377 41.1933L23.5315 39.787V35.4473L24.9377 36.8536V41.1933ZM25.9319 35.8594L24.5257 34.4531H28.1623L29.5685 35.8594H25.9319ZM30.5627 34.8652L29.1565 33.4589V29.8223L30.5627 31.2286V34.8652Z" fill="#222831"/>
</svg>

<svg width="34" height="45" fill="none" xmlns="http://www.w3.org/2000/svg"><path d="M28.453 28.125h-5.625V2.109h-7.031L1.734 28.125l4.22 5.625h11.25v6.328h5.624V33.75h5.625v-5.625zm-19.687 0l8.437-17.578v17.578H8.766z" fill="#FFB07B"/><path d="M17.203 40.078l2.813 2.813h5.625l-2.813-2.813h-5.625z" fill="#9E734C"/><path d="M22.828 33.75v6.328l2.813 2.813v-6.328l-2.813-2.813z" fill="#C09267"/><path d="M25.64 36.563h5.626l-2.813-2.813h-5.625l2.813 2.813z" fill="#9E734C"/><path d="M28.453 28.125l2.813 2.813v5.625l-2.813-2.813v-5.625z" fill="#C09267"/><path d="M5.953 33.75l2.813 2.813h8.437V33.75H5.953z" fill="#9E734C"/><path d="M8.766 28.125l8.437-17.578v7.031l-4.922 10.547H8.766zM22.828 2.109l2.813 2.813v23.203h-2.813V2.109z" fill="#C09267"/><path d="M17.906 10.547a.702.702 0 00-1.336-.305L8.133 27.82a.703.703 0 00.633 1.008h8.437a.703.703 0 00.703-.703V10.547zM16.5 27.422h-3.115l3.115-6.674v6.674zm0-10l-4.667 10h-1.95L16.5 13.636v3.786z" fill="#222831"/><path d="M28.951 27.629a.7.7 0 00-.498-.207h-2.109v-22.5a.704.704 0 00-.206-.497l-2.813-2.813a.699.699 0 00-.497-.206h-7.03a.703.703 0 00-.62.369L1.116 27.79a.703.703 0 00.056.757l4.219 5.625c.02.027.065.075.065.075L8.27 37.06c.132.131.31.206.497.206H16.5v2.812a.7.7 0 00.207.498l2.812 2.812c.132.132.31.206.497.206h5.625a.703.703 0 00.703-.703v-5.625h4.922a.702.702 0 00.65-.434c.027-.088.045-.178.053-.27v-5.624a.704.704 0 00-.206-.498l-2.812-2.811zm-5.42-23.822l1.407 1.406v22.209h-1.406V3.807zm-7.03 32.052H9.056L7.65 34.453h8.85v1.406zm.702-2.812H6.305l-3.737-4.984 13.651-25.25h5.906v25.312a.703.703 0 00.703.703h4.922v4.219h-4.922a.703.703 0 00-.703.703v5.625h-4.218V33.75a.703.703 0 00-.704-.703zm3.104 9.14L18.9 40.782h3.636l1.407 1.407h-3.637zm4.63-.994l-1.405-1.406v-4.34l1.406 1.407v4.34zm.995-5.334l-1.406-1.406h3.636l1.407 1.406h-3.637zm4.63-.994l-1.405-1.406v-3.637l1.406 1.407v3.636z" fill="#222831"/></svg>
